X:253
T:Joshua Fit the Battle of Jericho
C:Wanda Vick
N:Transcribed and Transcribed by Richard A Taylor
R:bluegrass
L:1/8
Q:1/4=90
M:4/4
K:C
z8 | "intro"e'c' ae c'a ec | [c'a]e cA [ea]c BA | [ea]c A^G [ee]c B=G | [eAEC][eAEC] [eAEC][eAEC] [eAEC][eAEC] [eAEC][eAEC] | 
[eAEC][eAEC] [eAEC][eAEC] [eAEC][eAEC] [eAEC][eAEC] | [eAEC][eAEC] [eAEC][eAEC] [eAEC][eAEC] [eAEC][eAEC] | 
"Am"C2 [e2A2E2C2] C2 [e2A2E2C2] | C2 [e2A2E2C2] C2 [e2A2E2C2] | C2 [e2A2E2C2] C2 [e2A2E2C2] | 
C2 [e2A2E2C2] C2 [e2A2E2C2] | "E"B,2 [^g2B2E2B,2] B,2 [g2B2E2B,2] | B,2 [^g2B2E2B,2] B,2 [g2B2E2B,2] | 
"Am"C2 [e2A2E2C2] C2 [e2A2E2C2] | C2 [e2A2E2C2] C2 [e2A2E2C2] | C2 [e2A2E2C2] C2 [e2A2E2C2] | 
C2 [e2A2E2C2] C2 [e2A2E2C2] | C2 [e2A2E2C2] C2 [e2A2E2C2] | C2 [e2A2E2C2] C2 [e2A2E2C2] | 
"D"A,2 [^f2A2D2A,2] A,2 [f2A2D2A,2] | "E"B,2 [^g2B2E2B,2] B,2 [g2B2E2B,2] | "Am"C2 [e2A2E2C2] C2 [e2A2E2C2] | 
C2 [e2A2E2C2] C2 [e2A2E2C2] | "Am"a4 e4 | [ed]e3 [e2d2] [e2c2] | [e2d2] [e4e4] [e2e2] | 
z2 [e2e2] [e2e2] [e2e2] | "E"a4 e4 | [ed]e3 [e2d2] [e2c2] | "Am"[e2d2] [e2e2] ^g2 a2 | 
b8 | ag ea ge dg | de ef ed cA | cB Ac BA GB | AG EA GE DC | "D"EE E2 DD D2 | 
"E"CC C2 B,B, B,2 | "Am"[EC][E4C4]z [EC][EC] | z8 | "Am"C2 [e2A2E2C2] C2 [e2A2E2C2] | 
C2 [e2A2E2C2] C2 [e2A2E2C2] | C2 [e2A2E2C2] C2 [e2A2E2C2] | C2 [e2A2E2C2] C2 [e2A2E2C2] | 
"E"B,2 [^g2B2E2B,2] B,2 [g2B2E2B,2] | B,2 [^g2B2E2B,2] B,2 [g2B2E2B,2] | "Am"C2 [e2A2E2C2] C2 [e2A2E2C2] | 
C2 [e2A2E2C2] C2 [e2A2E2C2] | C2 [e2A2E2C2] C2 [e2A2E2C2] | C2 [e2A2E2C2] C2 [e2A2E2C2] | 
C2 [e2A2E2C2] C2 [e2A2E2C2] | C2 [e2A2E2C2] C2 [e2A2E2C2] | "D"A,2 [^f2A2D2A,2] A,2 [f2A2D2A,2] | 
"E"B,2 [^g2B2E2B,2] B,2 [g2B2E2B,2] | "Am"C2 [e2A2E2C2] C2 [e2A2E2C2] | C2 [e2A2E2C2] C2 [e2A2E2C2] | 
[e2c2A2C2] [ecAC][e2c2A2C2][ecAC] [e2c2A2C2] | [ecAC][ecAC] z[ecAC] [e2c2A2C2] [e2c2] | 
[e2d2] [e2e2] [g2A2] [a2A2] | [c'4a4] [b2a2] [c'2a2] | z2 [c'2a2] ac' a2 | ^g2 g2 b2 b2 | 
be d'2 bd' b2 | ^d'/e'/e'/e'/ e'/e'/e'/e'/ d'/e'/e'/e'/ e'/e'/e'/e'/ | ^d'/e'/e'/e'/ e'/e'/e'/e'/ d'/e'/e'/e'/ e'/e'/e'/e'/ | 
d'c' b2 c'b a2 | ba g2 e2 c2 | d/e7/2 d4 | "D"c4 B4 | "E"AG ED GE DC | "Am"A,A,7/1 | 
z8 | z8 | z8 | 


